packages/core/src/svgs/tokens/mono/XY.svg

<svg width="24" height="24" viewBox="0 0 24 24" fill="none" xmlns="http://www.w3.org/2000/svg">
<path d="M2 18.5625L8.87497 11.0624L3.87499 5.4375H10.75L12.625 7.31249L17 2.9375H22L5.12498 21.0625L2 18.5625ZM12.9375 14.8125L14.5 16.6875H21.6875L16.6875 11.0624L12.9375 14.8125Z" fill="white"/>
</svg>

<svg xmlns="http://www.w3.org/2000/svg" width="24" height="24" fill="none" viewBox="0 0 24 24">
    <path fill="#fff" d="m2 18.563 6.875-7.5-5-5.626h6.875l1.875 1.875L17 2.938h5L5.125 21.063zm10.938-3.75 1.562 1.874h7.188l-5-5.625z"/>
</svg>
